icon/pk/flirt.svg

<svg viewBox="0 0 48 48" fill="none" xmlns="http://www.w3.org/2000/svg" height="1em" width="1em">
  <path d="M26 21.0001C23.9999 20.5001 21.2465 19.3622 17.1704 22.0924C14.1394 24.1226 12.8646 27.2399 12.4346 29.5301C12.2303 30.6188 13.1547 31.4968 14.2547 31.3664C15.0506 31.2721 15.9341 31.1251 16.6025 30.899C18.5728 30.2324 18.3142 28.9686 19.3194 27.4462C20.3245 25.9238 22.8521 25.4066 24.9318 26.561C27.0114 27.7155 27.678 29.6859 27.23 31.3576C26.7821 33.0293 25.7769 34.5518 23.2493 35.069C20.7218 35.5862 19.9059 34.1731 17.269 32.8693C15.8949 32.1899 14.1027 33.0709 13.0201 33.7678C12.4071 34.1624 12.1531 34.9076 12.4103 35.5897C12.585 36.0529 12.8254 36.5948 13.139 37.1379C13.9548 38.551 17.5169 43.089 22.1241 43.7262C26.7314 44.3635 31.5279 42.0652 34.2449 38.6125C36.9618 35.1597 37.0418 30.4032 35.1515 26.3131" stroke="black" stroke-width="4" stroke-linecap="round" stroke-linejoin="round"/>
  <path d="M35.046 26.4199L32.0005 14L22.7078 4.70721C22.3173 4.31665 21.6881 4.3232 21.3732 4.77699C20.6205 5.86185 19.6217 7.93093 21.0008 10C21.488 10.7311 25.0015 15 25.0015 15C25.0015 15 27.0977 27.5743 27.4734 29.5672" stroke="black" stroke-width="4" stroke-linecap="round" stroke-linejoin="round"/>
</svg>

<svg width="48" height="48" fill="none" xmlns="http://www.w3.org/2000/svg"><path d="M26 21c-2-.5-4.753-1.638-8.83 1.092-3.03 2.03-4.305 5.148-4.735 7.438-.205 1.089.72 1.967 1.82 1.836.796-.094 1.68-.24 2.347-.467 1.97-.667 1.712-1.93 2.717-3.453 1.006-1.522 3.533-2.04 5.613-.885 2.08 1.154 2.746 3.125 2.298 4.797-.448 1.671-1.453 3.194-3.98 3.711-2.528.517-3.344-.896-5.981-2.2-1.374-.68-3.166.202-4.249.899a1.514 1.514 0 0 0-.61 1.822c.175.463.415 1.005.729 1.548.816 1.413 4.378 5.951 8.985 6.588 4.607.638 9.404-1.66 12.12-5.114 2.718-3.452 2.798-8.209.907-12.299" stroke="#000" stroke-width="4" stroke-linecap="round" stroke-linejoin="round"/><path d="M35.046 26.42 32.001 14l-9.293-9.293c-.39-.39-1.02-.384-1.335.07-.753 1.085-1.751 3.154-.372 5.223.487.731 4 5 4 5s2.097 12.574 2.472 14.567" stroke="#000" stroke-width="4" stroke-linecap="round" stroke-linejoin="round"/></svg>
